X:131
T: Ansinglied am ersten Mai
N: A0497B
O: Europa, Mitteleuropa, Deutschland
N: Kuhn, Sammlung von Schweizer - Kuehreihen und alten VL 1812 S. 42.
M: 3/8
L: 1/16
K: G
G2 | B2d2c2 | B2G2A2 | B2d2c2 | A4
G2 | B2d2c2 | B2G2A2 | B2dcAF | G4
G2 | B2d2c2 | A4GA | B2d2c2 | A4
G2 | B2d2c2 | B2G2A2 | B4A2 | G4
G2 | B2d2c2 | A4GA | B2d2c2 | A4
G2 | B2d2c2 | B2G2A2 | B4A2 | G4

